X:2149
T:Sailor's Bonnet/Banshee
O:Ireland
M:3/4
L:1/8
Q:1/4=235
K:G
V:1
B2 d2  |:e4 a2 |a4 g2 |e4 f2 |
g3 fe2 |d4 B2 |B4 A2 |B6 |
B4 d2 |e4 B2 |B4 A2 |B6 |
g2 e2 f2 |e4 B2 |B4 A2 |A4 B2 |
B4 d2 |e4 a2 |a4 g2 |e4 f2 |
g3 fe2 |d4 B2 |B4 A2 |B6 |
B4 d2 |e3 fg2 |1 e4 d2 |B4 A2 |
G4 A2 |B4 A2 |G4 E2 |E4 D2 |
D2 B2 d2 :|2
O:Ireland
M:4/4
e2 d2 B2 A2 |G2 A2 B2 A2 |G2 E2 E2 D2 |(D4 D4) ||
K:D
A2 FA df f2 |df ef dB BF |A2 FA de fe |dB AG FD D2 |
A2 FA df f2 |df ef dB BF |A2 FA de fe |dB AF FD D2  |:
a2 af af df |af ef dB B2 |fb ba ba fa |ba af fe ef |
bf f2 af ef |af ef dB B2 |A2 FA de fe |dB AG FD D2 :|
dB AG FD DE |]
K:G
G2 GD ED EG |AG AB d2 GA |c2 cG AG Ac |dc de g2 AB |
d2 dA BA Bd |ed eg a2 DE  |:G2 GD ED EG |AG AB d2 Bd |
(3efg ed BA GA |BA GE ED DE |G2 GD ED EG |AG AB d2 Bd |
(3efg ed BA GA |BA GE ED D2 :| |:a2 ag ef ge |dB BA B2 Bd |
eB BA B2 gf |eB BA B2 Bd |ea ag ef ge |dB BA B2 Bd |
(3efg ed BA GA |BA GE ED D2 :|G2 GD ED EG |AG AB d2 GA |
c2 cG AG Ac |dc de g2 AB |d2 dA BA Bd |ed eg Ha4 |
fe _ee fHe3 |]
